images_sukapura_svg/cmd/32/tablenumberformatdialog.svg

<svg viewBox="0 0 32 32" xmlns="http://www.w3.org/2000/svg" xmlns:xlink="http://www.w3.org/1999/xlink"><linearGradient id="a" gradientUnits="userSpaceOnUse" x1="15" x2="15" y1="4" y2="28"><stop offset="0" stop-color="#efefef"/><stop offset=".33333334" stop-color="#fff"/><stop offset=".8888889" stop-color="#fff"/><stop offset="1" stop-color="#f5f5f5"/></linearGradient><filter id="b" color-interpolation-filters="sRGB" height="1.116265" width="1.123983" x="-.061992" y="-.058132"><feGaussianBlur stdDeviation=".61991525"/></filter><path d="m4 4h24v25.59322h-24z" filter="url(#b)" opacity=".15" stroke-width="1.032659"/><path d="m4 3c-.554 0-1 .446-1 1v24c0 .554.446 1 1 1h24c.554 0 1-.446 1-1v-24c0-.554-.446-1-1-1zm0 1h24v9 1 4 1 4 1 4h-6-1-5-1-5-1-5v-4-1-4-1-4-1z" fill="#69696e"/><path d="m4 4h24v24h-24z" fill="url(#a)"/><path d="m3 3h26v6h-26z" fill="#0a84ff"/><path d="m4 3c-.554 0-1 .446-1 1v5h1 5 1 5 1 5 1 6 1v-5c0-.554-.446-1-1-1zm0 1h5v4h-5zm6 0h5v4h-5zm6 0h5v4h-5zm6 0h6v4h-6z" fill="#0040dd"/><g fill="#69696e"><path d="m15.988281 12c-.54736 0-.988281.440921-.988281.988281v1.011719h-1.011719c-.54736 0-.988281.440921-.988281.988281v.02344c0 .547358.440921.988279.988281.988279h1.011719v4h-1.035156c-.534081 0-.964844.430763-.964844.964844v.07031c0 .534083.430763.964846.964844.964846h1.035156v1.011719c0 .54736.440921.988281.988281.988281h.02344c.547358 0 .988279-.440921.988279-.988281v-1.011719h4v1.011719c0 .54736.440921.988281.988281.988281h.02344c.547358 0 .988279-.440921.988279-.988281v-1.011719h1.035156c.534081 0 .964844-.430763.964844-.964844v-.07031c0-.534083-.430763-.964846-.964844-.964846h-1.035156v-4h1.011719c.54736 0 .988281-.440921.988281-.988281v-.02344c0-.547358-.440921-.988279-.988281-.988279h-1.011719v-1.011719c0-.54736-.440921-.988281-.988281-.988281h-.02344c-.547358 0-.988279.440921-.988279.988281v1.011719h-4v-1.011719c0-.54736-.440921-.988281-.988281-.988281zm1.011719 4h4v4h-4z"/><rect height="2" rx=".5" width="2" x="9" y="22"/></g></svg>

<?xml version="1.0" encoding="UTF-8" standalone="no"?>
<svg
   xmlns:dc="http://purl.org/dc/elements/1.1/"
   xmlns:cc="http://creativecommons.org/ns#"
   xmlns:rdf="http://www.w3.org/1999/02/22-rdf-syntax-ns#"
   xmlns:svg="http://www.w3.org/2000/svg"
   xmlns="http://www.w3.org/2000/svg"
   xmlns:sodipodi="http://sodipodi.sourceforge.net/DTD/sodipodi-0.dtd"
   xmlns:inkscape="http://www.inkscape.org/namespaces/inkscape"
   viewBox="0 0 32 32"
   version="1.1"
   id="svg26"
   sodipodi:docname="tablenumberformatdialog.svg"
   inkscape:version="0.92.3 (unknown)"
   inkscape:export-filename="/home/rizmut/Dokumen/Rizmut/Github/libreoffice-style-sukapura/images_sukapura/cmd/32/tablenumberformatdialog.png"
   inkscape:export-xdpi="96"
   inkscape:export-ydpi="96">
  <metadata
     id="metadata32">
    <rdf:RDF>
      <cc:Work
         rdf:about="">
        <dc:format>image/svg+xml</dc:format>
        <dc:type
           rdf:resource="http://purl.org/dc/dcmitype/StillImage" />
        <dc:title></dc:title>
      </cc:Work>
    </rdf:RDF>
  </metadata>
  <defs
     id="defs30" />
  <sodipodi:namedview
     pagecolor="#ffffff"
     bordercolor="#666666"
     borderopacity="1"
     objecttolerance="10"
     gridtolerance="10"
     guidetolerance="10"
     inkscape:pageopacity="0"
     inkscape:pageshadow="2"
     inkscape:window-width="1366"
     inkscape:window-height="699"
     id="namedview28"
     showgrid="true"
     inkscape:zoom="14.75"
     inkscape:cx="10.836659"
     inkscape:cy="13.723264"
     inkscape:window-x="0"
     inkscape:window-y="0"
     inkscape:window-maximized="1"
     inkscape:current-layer="svg26">
    <inkscape:grid
       type="xygrid"
       id="grid845"
       spacingx="0.5"
       spacingy="0.5"
       empspacing="2" />
  </sodipodi:namedview>
  <linearGradient
     id="a"
     gradientUnits="userSpaceOnUse"
     x1="15"
     x2="15"
     y1="4"
     y2="28">
    <stop
       offset="0"
       stop-color="#efefef"
       id="stop2" />
    <stop
       offset=".33333334"
       stop-color="#fff"
       id="stop4" />
    <stop
       offset=".8888889"
       stop-color="#fff"
       id="stop6" />
    <stop
       offset="1"
       stop-color="#f5f5f5"
       id="stop8" />
  </linearGradient>
  <filter
     id="b"
     color-interpolation-filters="sRGB"
     height="1.116265"
     width="1.123983"
     x="-.061992"
     y="-.058132">
    <feGaussianBlur
       stdDeviation=".61991525"
       id="feGaussianBlur11" />
  </filter>
  <path
     d="m4 4h24v25.59322h-24z"
     filter="url(#b)"
     opacity=".15"
     stroke-width="1.032659"
     id="path14" />
  <path
     d="m4 3c-.554 0-1 .446-1 1v24c0 .554.446 1 1 1h24c.554 0 1-.446 1-1v-24c0-.554-.446-1-1-1zm0 1h24v9 1 4 1 4 1 4h-6-1-5-1-5-1-5v-4-1-4-1-4-1z"
     fill="#69696e"
     id="path16" />
  <path
     d="m4 4h24v24h-24z"
     fill="url(#a)"
     id="path18" />
  <path
     d="m3 3h26v6h-26z"
     fill="#0a84ff"
     id="path20" />
  <path
     d="m4 3c-.554 0-1 .446-1 1v5h1 5 1 5 1 5 1 6 1v-5c0-.554-.446-1-1-1zm0 1h5v4h-5zm6 0h5v4h-5zm6 0h5v4h-5zm6 0h6v4h-6z"
     fill="#0040dd"
     id="path24" />
  <path
     inkscape:connector-curvature="0"
     style="fill:#69696e;fill-opacity:1"
     d="M 15.988281,12 C 15.440921,12 15,12.440921 15,12.988281 V 14 H 13.988281 C 13.440921,14 13,14.440921 13,14.988281 v 0.02344 C 13,15.559079 13.440921,16 13.988281,16 H 15 v 4 H 13.964844 C 13.430763,20 13,20.430763 13,20.964844 v 0.07031 C 13,21.569237 13.430763,22 13.964844,22 H 15 v 1.011719 C 15,23.559079 15.440921,24 15.988281,24 h 0.02344 C 16.559079,24 17,23.559079 17,23.011719 V 22 h 4 v 1.011719 C 21,23.559079 21.440921,24 21.988281,24 h 0.02344 C 22.559079,24 23,23.559079 23,23.011719 V 22 h 1.035156 C 24.569237,22 25,21.569237 25,21.035156 v -0.07031 C 25,20.430763 24.569237,20 24.035156,20 H 23 v -4 h 1.011719 C 24.559079,16 25,15.559079 25,15.011719 v -0.02344 C 25,14.440921 24.559079,14 24.011719,14 H 23 V 12.988281 C 23,12.440921 22.559079,12 22.011719,12 h -0.02344 C 21.440921,12 21,12.440921 21,12.988281 V 14 H 17 V 12.988281 C 17,12.440921 16.559079,12 16.011719,12 Z M 17,16 h 4 v 4 h -4 z"
     id="path8" />
  <rect
     style="opacity:1;fill:#69696e;fill-opacity:1;stroke:none;stroke-width:1;stroke-linecap:round;stroke-linejoin:round;stroke-miterlimit:4;stroke-dasharray:none;stroke-opacity:0"
     id="rect849"
     width="2"
     height="2"
     x="9"
     y="22"
     rx="0.5"
     ry="0.5" />
</svg>
